!!!COA: Josquin des Prez
!!!CDT: ~1450-1521/08/27
!!!OTL@@FRA: Plusieurs regretz
!!!AGN: Chanson
!!!SCT: NJE 29.21
!!!SCA: New Josquin Edition 29.21
!!!voices: 5
**kern	**kern	**kern	**kern	**kern
*staff5	*staff4	*staff3	*staff2	*staff1
*Ivox	*Ivox	*Ivox	*Ivox	*Ivox
*I"Bassus	*I"Tenor	*I"Contratenor	*I"Quintus	*I"Superius
*I'B	*I'T	*I'Ct	*I'Q	*I'S
*clefF4	*clefF4	*clefGv2	*clefGv2	*clefG2
*k[]	*k[]	*k[]	*k[]	*k[]
*M2/1	*M2/1	*M2/1	*M2/1	*M2/1
*met(C|)	*met(C|)	*met(C|)	*met(C|)	*met(C|)
=1-	=1-	=1-	=1-	=1-
!	!LO:TX:Z=10:t=Canon at the upper fifth	!	!	!
0r	0r	1r	0r	1d
.	.	1d	.	2.d/
.	.	.	.	4e/
=2	=2	=2	=2	=2
0r	0r	2.d\	0r	4f/
.	.	.	.	4g/
.	.	.	.	2.a/
.	.	4c\	.	.
.	.	1B	.	.
.	.	.	.	4g#i/
.	.	.	.	4g#i/
.	.	.	.	4f#i/
=3	=3	=3	=3	=3
1r	1D	1A	0r	1a
1D	2.D\	2.F/	.	2r
.	.	.	.	2f/
.	4E\	4G/	.	.
=4	=4	=4	=4	=4
2.D\	4F\	1A	0r	2.f/
.	4G\	.	.	.
.	2.A\	.	.	.
4C/	.	.	.	4e/
1BB	.	1D	.	1d
.	4G#i\	.	.	.
.	4G#i\	.	.	.
.	4F#i\	.	.	.
=5	=5	=5	=5	=5
1AA	0A	1E	1A	1c
2r	.	2.c\	2.A/	2r
2A\	.	.	.	2cc\
.	.	4d\	4B\	.
=6	=6	=6	=6	=6
2.A\	0r	1e	4c\	2.cc\
.	.	.	4d\	.
.	.	.	2.e\	.
4G\	.	.	.	4b\
1F	.	1A	.	1a
.	.	.	4d\	.
.	.	.	4d\	.
.	.	.	4c\	.
=7	=7	=7	=7	=7
0E	1r	2B\	0e	0g
.	.	2E/	.	.
.	1E	2.G/	.	.
.	.	4A/	.	.
=8	=8	=8	=8	=8
1r	1G	2B\	0r	1r
.	.	4E/	.	.
.	.	4F/	.	.
1E	2G\	4G/	.	1g
.	.	4A/	.	.
.	[2G\	2B\	.	.
=9	=9	=9	=9	=9
1G	4G\]	2E/	1r	1g
.	4F\	.	.	.
.	4E\	2.e\	.	.
.	4D\	.	.	.
1G	1E	.	1B	1g
.	.	4f\	.	.
.	.	4g\	.	.
.	.	4e\	.	.
=10	=10	=10	=10	=10
1.F	0D	2f\	1d	2.a/
.	.	2d\	.	.
.	.	.	.	4g/
.	.	1f	2d\	2a/
4E\	.	.	[2d\	[2b\
4D\	.	.	.	.
=11	=11	=11	=11	=11
2.E\	0r	2.e\	4d\]	4b\]
.	.	.	4c\	4a/
.	.	.	4B\	2.a/
4F\	.	4d\	4A/	.
1E	.	1e	1B	.
.	.	.	.	4g#i/
.	.	.	.	4g#i/
.	.	.	.	4f#i/
=12	=12	=12	=12	=12
0AA	0r	0c	0A	1a
.	.	.	.	1r
=13	=13	=13	=13	=13
0r	0r	1r	0r	1d
.	.	1d	.	2.d/
.	.	.	.	4e/
=14	=14	=14	=14	=14
0r	0r	2.d\	0r	4f/
.	.	.	.	4g/
.	.	.	.	1a
.	.	4c\	.	.
.	.	1B	.	.
.	.	.	.	2g#i/
=15	=15	=15	=15	=15
1r	1D	1A	0r	1a
1D	2.D\	2.F/	.	2r
.	.	.	.	2f/
.	4E\	4G/	.	.
=16	=16	=16	=16	=16
2.D\	4F\	1A	0r	2.f/
.	4G\	.	.	.
.	2.A\	.	.	.
4C/	.	.	.	4e/
1BB	.	1D	.	1d
.	4G#i\	.	.	.
.	4G#i\	.	.	.
.	4F#i\	.	.	.
=17	=17	=17	=17	=17
1AA	0A	1E	1A	1c
2r	.	2.c\	2.A/	2r
2A\	.	.	.	2cc\
.	.	4d\	4B\	.
=18	=18	=18	=18	=18
2.A\	0r	1e	4c\	2.cc\
.	.	.	4d\	.
.	.	.	2.e\	.
4G\	.	.	.	4b\
1F	.	1A	.	1a
.	.	.	4d\	.
.	.	.	4d\	.
.	.	.	4c\	.
=19	=19	=19	=19	=19
0E	1r	2B\	0e	0g
.	.	2E/	.	.
.	1E	2.G/	.	.
.	.	4A/	.	.
=20	=20	=20	=20	=20
1r	1G	2B\	0r	1r
.	.	4E/	.	.
.	.	4F/	.	.
1E	2G\	4G/	.	1g
.	.	4A/	.	.
.	[2G\	2B\	.	.
=21	=21	=21	=21	=21
1G	4G\]	2E/	1r	1g
.	4F\	.	.	.
.	4E\	2.e\	.	.
.	4D\	.	.	.
1G	1E	.	1B	1g
.	.	4f\	.	.
.	.	4g\	.	.
.	.	4e\	.	.
=22	=22	=22	=22	=22
1.F	0D	2f\	1d	2.a/
.	.	2d\	.	.
.	.	.	.	4g/
.	.	1f	2d\	2a/
4E\	.	.	[2d\	[2b\
4D\	.	.	.	.
=23	=23	=23	=23	=23
2.E\	0r	2.e\	4d\]	4b\]
.	.	.	4c\	4a/
.	.	.	4B\	2.a/
4F\	.	4d\	4A/	.
1E	.	1e	1B	.
.	.	.	.	4g#i/
.	.	.	.	4g#i/
.	.	.	.	4f#i/
=24	=24	=24	=24	=24
0AA	1r	2c\	0A	0a
.	.	2e\	.	.
.	1E	2e\	.	.
.	.	[2e\	.	.
=25	=25	=25	=25	=25
0D	1F	2e\]	0r	1r
.	.	4d\	.	.
.	.	4c\	.	.
.	1F	1d	.	1A
=26	=26	=26	=26	=26
0r	0E	0e	1r	1B
.	.	.	1B	1B
=27	=27	=27	=27	=27
1r	1r	2r	1c	0A
.	.	2e\	.	.
1AA	1A	4e\	1c	.
.	.	4d\	.	.
.	.	4e\	.	.
.	.	4f\	.	.
=28	=28	=28	=28	=28
1E	1G	4g\	0B	1r
.	.	4e\	.	.
.	.	2.g\	.	.
1E	1G	.	.	1b
.	.	4f\	.	.
.	.	4e\	.	.
.	.	4d\	.	.
=29	=29	=29	=29	=29
0AA	1.A	2c\	1r	1.cc
.	.	2A/	.	.
.	.	2A/	1e	.
.	2E\	2A/	.	2cc\
=30	=30	=30	=30	=30
1r	2.G\	2B\	1d	1b
.	.	2G/	.	.
.	4A\	.	.	.
1D	1F	1A	1d	1a
=31	=31	=31	=31	=31
1.G	0E	2.B\	1.e	2.g/
.	.	4E/	.	4a/
.	.	4E/	.	1b
.	.	4F/	.	.
2G\	.	4G/	2B\	.
.	.	4A/	.	.
=32	=32	=32	=32	=32
2G\	0r	2.B\	2.d\	2r
2G\	.	.	.	2b\
.	.	4E/	4e\	.
1A	.	1e	1c	2cc\
.	.	.	.	2a/
=33	=33	=33	=33	=33
0E	1r	2r	0B	2a/
.	.	2e\	.	4g#i/
.	.	.	.	4f#i/
.	1E	2e\	.	1g#i
.	.	[2e\	.	.
=34	=34	=34	=34	=34
2r	1F	2e\]	0r	1a
2A\	.	4d\	.	.
.	.	4c\	.	.
2A\	1F	1d	.	1A
[2A\	.	.	.	.
=35	=35	=35	=35	=35
2A\]	0E	0e	1r	1B
4G#i\	.	.	.	.
4F#i\	.	.	.	.
1G#i	.	.	1B	1B
=36	=36	=36	=36	=36
1.A	1r	2r	1c	0A
.	.	2e\	.	.
.	1A	4e\	1c	.
.	.	4d\	.	.
2AA/	.	4e\	.	.
.	.	4f\	.	.
=37	=37	=37	=37	=37
1E	1G	4g\	0B	1r
.	.	4e\	.	.
.	.	2.g\	.	.
1E	1G	.	.	1b
.	.	4f\	.	.
.	.	4e\	.	.
.	.	4d\	.	.
=38	=38	=38	=38	=38
0AA	1.A	2c\	1r	1.cc
.	.	2A/	.	.
.	.	2A/	1e	.
.	2E\	2A/	.	2cc\
=39	=39	=39	=39	=39
1r	2.G\	2B\	1d	1b
.	.	2G/	.	.
.	4A\	.	.	.
1D	1F	1A	1d	1a
=40	=40	=40	=40	=40
1.G	0E	2.B\	1.e	2.g/
.	.	4E/	.	4a/
.	.	4E/	.	[1b
.	.	4F/	.	.
2G\	.	4G/	2B\	.
.	.	4A/	.	.
=41	=41	=41	=41	=41
2G\	0r	2.B\	2.d\	2b\]
2G\	.	.	.	2b\
.	.	4E/	4e\	.
1A	.	1e	1c	2cc\
.	.	.	.	2a/
=42	=42	=42	=42	=42
0E	0r	0e	0B	2a/
.	.	.	.	4g#i/
.	.	.	.	4f#i/
.	.	.	.	1g#i
=43	=43	=43	=43	=43
2r	0A	2r	0r	2a/
2AA/	.	2c\	.	2e/
1D	.	1d	.	1f
=44	=44	=44	=44	=44
1D	1A	1d	0r	1f
2.AA/	1A	[1c	.	2.e/
4BB/	.	.	.	4d/
=45	=45	=45	=45	=45
4C/	0G	2c\]	0e	4e/
4D\	.	.	.	4f/
2.E\	.	4B\	.	2.g/
.	.	4A/	.	.
.	.	1B	.	.
4F\	.	.	.	4f/
2G\	.	.	.	4e/
.	.	.	.	4d/
=46	=46	=46	=46	=46
2A\	1r	1A	1e	0c
2AA/	.	.	.	.
2.C/	1A	2r	1e	.
.	.	2E/	.	.
4BB/	.	.	.	.
=47	=47	=47	=47	=47
1GG	1.B-	2G/	0d	2r
.	.	2D/	.	2d/
2r	.	2.d\	.	2.f/
2D\	2A\	.	.	.
.	.	4c\	.	4f/
=48	=48	=48	=48	=48
2E\	2G\	4B\	1r	2e/
.	.	4A/	.	.
2F\	2F\	1A	.	2.d/
2G\	1E	.	1e	.
.	.	.	.	4c#i/
2C/	.	2G/	.	4c#i/
.	.	.	.	4B/
=49	=49	=49	=49	=49
3.F\V	0D	2A/	1.f	1d
6G\	.	2D/	.	.
3A\Z	.	.	.	.
3D\V	.	2.d\	.	1r
3E\	.	.	.	.
.	.	.	2e\	.
3F\Z	.	.	.	.
.	.	4c\	.	.
=50	=50	=50	=50	=50
2G\	0r	4B\	2d\	0r
.	.	4A/	.	.
2A\	.	1A	2c\	.
1E	.	.	1B	.
.	.	2G#i/	.	.
=51	=51	=51	=51	=51
2r	0A	1A	0A	2r
2AA/	.	.	.	2e/
1D	.	2r	.	1f
.	.	2A/	.	.
=52	=52	=52	=52	=52
1D	1A	2d\	0r	1f
.	.	2d\	.	.
2.AA/	1A	[1c	.	2.e/
4BB/	.	.	.	4d/
=53	=53	=53	=53	=53
4C/	0G	2c\]	0e	4e/
4D\	.	.	.	4f/
2.E\	.	4B\	.	2.g/
.	.	4A/	.	.
.	.	1B	.	.
4F\	.	.	.	4f/
2G\	.	.	.	4e/
.	.	.	.	4d/
=54	=54	=54	=54	=54
2A\	1r	1A	1e	0c
2AA/	.	.	.	.
2.C/	1A	2r	1e	.
.	.	2E/	.	.
4BB/	.	.	.	.
=55	=55	=55	=55	=55
1GG	1.B-	2G/	0d	2r
.	.	2D/	.	2d/
2r	.	2.d\	.	2.f/
2D\	2A\	.	.	.
.	.	4c\	.	4f/
=56	=56	=56	=56	=56
2E\	2G\	4B\	1r	2e/
.	.	4A/	.	.
2F\	2F\	1A	.	2.d/
2G\	1E	.	1e	.
.	.	.	.	4c#i/
2C/	.	2G/	.	4c#i/
.	.	.	.	4B/
=57	=57	=57	=57	=57
2.F\	[0Dl	3A/V	1.f	[0dl
.	.	3D/	.	.
.	.	3E/Z	.	.
4E\	.	.	.	.
2D\	.	3.F/V	.	.
2C/	.	6G/	2e\	.
.	.	3A/Z	.	.
=58	=58	=58	=58	=58
2BB-/	0D_	3.D/V	2d\	0d_
2AA/	.	6E/	2c\	.
.	.	3F/Z	.	.
1GG	.	3G/V	1B-i	.
.	.	3D/	.	.
.	.	3G/Z	.	.
=59	=59	=59	=59	=59
0Dl	0D]	0Fl	0Al	0d]
==	==	==	==	==
*-	*-	*-	*-	*-
!!!RDF**kern: l=long note in original notation
!!!RDF**kern: i=editorial accidental
!!!RDF**kern: V=start of tuplet marker
!!!RDF**kern: Z=end of tuplet marker
!!!ENC: Will Watson 30/10/2011
!!!END: 2011/10/30/
!!!EED: Jesse Rodin
!!!EEV: 2012/04/22/
!!attribution-level@Jos: 3 (tricky)
!!!ONB: Translated from MusicXML and edited on 2011/12/01/ by Craig Sapp
!!muse2ps:  C^@{COA}?\n@{SCT}^v90,90,90,90,90,130Q16
